X:1
T:Dark Island (Eilean Dorcha)
T:Dr. MacKay’s Farewell to Creagorry (before lyrics added)
C:Music: Iain McLaughlin, Creagorry (1958)
C:Words: David Silver, Inverness (1963)
M:3/4
L:1/8
K:D
|A B|"Em"e3 B e2|"Bm"d3 e d2|"G"B3 A G2|"D"A4 d e
w:v1~A-_way to the west-ward I'm long-ing to be, where the
w:v2~So_ gen-tle the sea breeze that rip-ples the bay, where the
w:v3~True_ gens of the He-bri-des bathed in the light, of the
|f3 e d2|"D"d a3 A2|"D"f3 a f2|"Em7"e4 "A7"AB
w:beau-ties of hea-ven un-fold by the sea. Where the
w:stream joins the o-cean and young child-ren play, on the
w:mid-sum-mer dawn-ing that fol-lows the night. How I
|"Em"e3 B e2|"Bm"d3 e d2|"G"B3 A G2|"D"A4 d e
w:sweet pur-ple hea-ther blooms frag-rant and free, on a
w:strand of pure sil-ver I'll wel-come each day, and I'll
w:yearn for the cries of the sea-gull in flight, as they
|f3 A a f|"Em7"e3 A "A7"f e|"D"d3 d d2| d4||
w:hill-top high a-bove the Dark_ Is-__land.
w:roam for-ev-er more the Dark_ Is-__land.
w:cir-cle high a-bove the Dark_ Is-__land.
|f g|"D"a3 A A2|"D"f3 e d2|"G"B G3 B2|"D"A4 d e
w:ch~Oh_ isle of my child-hood, I'm dream-ing of thee, as the
|f3 e d2|"D"d a3 A2|"D"f3 a f2|"Em7"e4 "A7"A B
w:steam-er leaves O-ban and pass-es Ti-ree. Soon I'll
|"Em"e3 B e2|"Bm"d3 e d2|"G"B3 A G2|"D"A4 d e
w:cap-ture the ma-gic that lin-gers for me, when I'm
|f3 A a f|"Em7"e3 A "A7"f e|"D"d3 d "G"d2|"D"d4||
w:back once more up-on the Dark_ Is-__land.

In Gaelic:

1	Air mo thùrus do'n iar 's ann bu mhiannach a bhi
	Far bheil àilleachd nan Néimh dol fo sgéith 'sa chuan sios
	Fraoch dearg 's e fo bhlàth fàile cùbhraidh cho saor
	Air a' bheinn ud is àird 'san Eilean Dorcha

1-alt	An mo thùras don iar 's leam bu mhiannach a bhi
	Far bheil àilleachd nan eathar dol fo sgéith sa chuan sios,
	Creag Dhearg 's e fo bhlàth faileadh cùbhraidh cho saor
	Air a' bheinn ud as àird 'san Eilean Dorcha.


Séist	Eilean òige mo ghràidh 's tu tha tàladh mo chridh'
	Is mi seòladh bhon Obain 's a dol seachad Tiridh,
	Bi mi glacadh a dh'aithghearr gach mais a tha 'gam dhith
	'S bi mi fhìn air ais a-rithist 'san Eilean Dorcha.

Alt	Eilean òige mo ghràidh 's tu tha tàladh mo chridh'
	'S mi seòladh bhon Obain gu eilean bòidheach Thiridh,
	Bi mi glacadh air oidhche gach mais a tha 'gam dhith
	'S bi mi fhìn air ais a-rithist 'san Eilean Dorcha.

2	Gaoth na mara cho séimh séideach reidh staigh don bhaigh
	Far bheil sruth dol don chuan clann suaimhneach le'n gàir',
	Air an traigh gheal mar airgead bi mi falbh oirr' gach là
	'S bi mi fhìn air ais a-rithist 'san Eilean Dorcha.

3	Fior àilleagan e measg gach cearn 'san taobh siar
	Anns a mhoch mhaduinn thràth 's e ri dearrsadh 'sa ghrian:
	Eòin na mara ri seinn 'sa toirt sòlas dom' chridh'
	'S iad ag itealachd gu h-àrd 'san Eilean Dorcha.
